source/img/svg/icon-pin-white.svg

<svg width="40" height="40" viewBox="0 0 40 40" fill="none" xmlns="http://www.w3.org/2000/svg">
<path fill-rule="evenodd" clip-rule="evenodd" d="M20.8131 7.78432C16.3767 7.78432 12.8226 11.1137 12.8226 15.1711C12.8226 16.1491 13.2283 17.4932 13.9136 19.0365C14.5917 20.5635 15.5153 22.2244 16.4903 23.815C18.1105 26.4586 19.8532 28.8769 20.7976 30.1155C21.023 29.8034 21.3227 29.3843 21.6739 28.8828C22.4735 27.741 23.5388 26.1744 24.6031 24.4728C25.6687 22.7694 26.7271 20.9406 27.5174 19.2725C28.3191 17.5803 28.8036 16.1359 28.8036 15.1711C28.8036 11.1137 25.2495 7.78432 20.8131 7.78432ZM20.8131 31.062L21.2815 31.3887L20.8321 31.992L20.3585 31.4064C19.6296 30.5051 17.4735 27.6096 15.4972 24.385C14.5086 22.7722 13.558 21.0656 12.8528 19.4776C12.1548 17.9058 11.668 16.3872 11.668 15.1711C11.668 10.4522 15.7858 6.66699 20.8131 6.66699C25.8404 6.66699 29.9582 10.4522 29.9582 15.1711C29.9582 16.4004 29.3718 18.0394 28.567 19.7381C27.7508 21.461 26.6673 23.3306 25.5909 25.0514C24.5133 26.7741 23.4366 28.3575 22.6297 29.5096C22.2262 30.0859 21.8897 30.5549 21.6538 30.8801C21.5359 31.0427 21.4431 31.1695 21.3797 31.2557L21.307 31.3543L21.2881 31.3797L21.282 31.388C21.2819 31.3881 21.2815 31.3887 20.8131 31.062ZM20.8131 12.5516C18.766 12.5516 17.1065 14.1575 17.1065 16.1384C17.1065 18.1193 18.766 19.7252 20.8131 19.7252C22.8602 19.7252 24.5197 18.1193 24.5197 16.1384C24.5197 14.1575 22.8602 12.5516 20.8131 12.5516ZM15.9519 16.1384C15.9519 13.5404 18.1283 11.4343 20.8131 11.4343C23.4979 11.4343 25.6743 13.5404 25.6743 16.1384C25.6743 18.7364 23.4979 20.8425 20.8131 20.8425C18.1283 20.8425 15.9519 18.7364 15.9519 16.1384Z" fill="white"/>
</svg>

<svg width="40" height="40" fill="none" xmlns="http://www.w3.org/2000/svg"><path fill-rule="evenodd" clip-rule="evenodd" d="M20.813 7.784c-4.436 0-7.99 3.33-7.99 7.387 0 .978.405 2.322 1.09 3.866.679 1.527 1.602 3.187 2.577 4.778a80.759 80.759 0 004.308 6.3 103.924 103.924 0 003.806-5.643c1.065-1.703 2.123-3.531 2.913-5.2.802-1.692 1.287-3.136 1.287-4.1 0-4.058-3.554-7.388-7.99-7.388zm0 23.278l.469.327-.45.603-.474-.586c-.728-.9-2.884-3.796-4.86-7.021-.99-1.613-1.94-3.32-2.645-4.907-.698-1.572-1.185-3.09-1.185-4.307 0-4.719 4.118-8.504 9.145-8.504 5.027 0 9.145 3.785 9.145 8.504 0 1.23-.586 2.868-1.391 4.567-.816 1.723-1.9 3.593-2.976 5.313a105.044 105.044 0 01-4.211 6.205l-.073.098-.019.026-.006.008-.469-.326zm0-18.51c-2.047 0-3.706 1.606-3.706 3.586 0 1.981 1.659 3.587 3.706 3.587 2.047 0 3.707-1.606 3.707-3.587 0-1.98-1.66-3.586-3.707-3.586zm-4.861 3.586c0-2.598 2.176-4.704 4.861-4.704 2.685 0 4.861 2.106 4.861 4.704s-2.176 4.704-4.86 4.704c-2.686 0-4.862-2.106-4.862-4.704z" fill="#fff"/></svg>
